X:1
T:Déjame Nacer de Nuevo
T:Déjame Nacer de Nuevo
T:Hora Santa - Perdón/Sanación
%%score 1 2 3
L:1/8
Q:1/4=60
M:4/4
K:C
V:1 treble transpose=-14 nm="Tenorsaxophon" snm="T. Sax."
V:2 treble transpose=-9 nm="Altsaxophon" snm="A.sax."
V:3 tab stafflines=6 strings=E2,A2,D3,G3,B3,E4 nm="Klassische Gitarre" snm="Git."
V:1
[K:D] z4 z2 z/ ^D/E/^E/ | F2- F<A GF<DE | F4 z2 z/ ^D/E/^E/ | F2- F<A BA<GF/^E/ | E4 z4 |] %5
V:2
[K:A] z4 z2 z/ ^A/B/^B/ | c2- c<e dc<AB | c4 z2 z/ ^A/B/^B/ | c2- c<e fe<dc/^B/ | B4 z4 |] %5
V:3
 !6!G,,!3!G,!2!C!3!G, !1!F!3!G,!2!C!3!G, | !5!C,!3!G,!2!B,!1!G [!6!F,,!1!E]!3!A,!2!C!1!E | %2
 [!5!C,!1!E]!3!G,!2!C!3!G, !1!E!3!G,!2!C!3!G, | !5!C,!3!G,!2!C!1!G [!6!F,,!1!F]!3!A,!2!C!1!F | %4
 !6!G,,!3!G,!2!C!3!G, !1!F!3!G,!2!C!3!G, |] %5

